brandFactory_export/3.Masa/Fuera de servicio _3Masa.svg

<?xml version="1.0" encoding="UTF-8"?>
<svg width="24px" height="24px" viewBox="0 0 24 24" version="1.1" xmlns="http://www.w3.org/2000/svg" xmlns:xlink="http://www.w3.org/1999/xlink">
    <title>3.Masa/Fuera de servicio _3Masa</title>
    <g id="Symbols" stroke="none" stroke-width="1" fill="none" fill-rule="evenodd">
        <g id="3.Masa/Fuera-de-servicio-_3Masa" fill="#5CB615" fill-rule="nonzero">
            <path d="M21.912605,19.7210084 C22.1378151,19.3378151 22.4436975,18.3966387 21.6268908,16.8571429 C20.3731092,14.4739496 17.9596639,14.3092437 17.9394958,14.3092437 C17.6840336,14.2957983 17.4521008,14.1478992 17.3310924,13.9226891 C17.2436975,13.7647059 15.0352941,9.90252101 9.63361345,9.90252101 C6.94789916,9.90252101 5.10588235,11.1966387 4.02689076,12.2823529 C2.38991597,13.9394958 1.51596639,16.1647059 1.52605042,17.4084034 C1.47563025,18.4168067 1.52605042,19.2168067 1.59327731,19.7210084 L3.00504202,19.7210084 C3.27058824,18.1983193 4.40672269,17.2806723 6.09411765,17.2806723 C7.78151261,17.2806723 8.91764706,18.2016807 9.18319328,19.7210084 L13.2705882,19.7210084 C13.5260504,18.1983193 14.6554622,17.2907563 16.3394958,17.2907563 C18.0268908,17.2907563 19.1630252,18.2016807 19.4184874,19.7210084 L21.912605,19.7210084 Z M18.0201681,20.4605042 L18.0201681,20.4504202 C18.0201681,19.3142857 17.4722689,18.7731092 16.3428571,18.7731092 C15.2168067,18.7731092 14.6756303,19.3176471 14.6756303,20.4504202 L14.6756303,20.4605042 C14.6756303,21.5865546 15.2134454,22.1411765 16.3428571,22.1411765 C17.4689076,22.1411765 18.0201681,21.5865546 18.0201681,20.4605042 Z M7.77142857,20.4605042 L7.77142857,20.4403361 C7.77142857,19.3042017 7.22352941,18.7596639 6.09411765,18.7596639 C4.96470588,18.7596639 4.41680672,19.3042017 4.41680672,20.4403361 C4.41680672,21.5764706 4.96470588,22.1310924 6.09411765,22.1310924 C7.21344538,22.1310924 7.76134454,21.5865546 7.77142857,20.4605042 L7.77142857,20.4605042 Z M21.7176471,14.5344538 C22.1579832,14.9613445 22.5815126,15.492437 22.9344538,16.1647059 C24.5613445,19.2571429 22.8571429,20.9277311 22.7865546,20.994958 C22.6487395,21.1260504 22.4672269,21.2 22.2756303,21.2 L19.4218487,21.2 C19.1462185,22.712605 18.0201681,23.6201681 16.3428571,23.6201681 C14.6655462,23.6201681 13.5394958,22.712605 13.2739496,21.2 L9.17310924,21.2 C8.89747899,22.702521 7.77142857,23.610084 6.09411765,23.610084 C4.41680672,23.610084 3.28739496,22.702521 3.01512605,21.2 L0.957983193,21.2 C0.611764706,21.1966387 0.315966387,20.9546218 0.242016807,20.6184874 C0.231932773,20.5714286 -0.043697479,19.2941176 0.0537815126,17.3781513 C0.043697479,15.8857143 0.957983193,13.297479 2.98823529,11.2436975 C3.84201681,10.3731092 5.11596639,9.38487395 6.8302521,8.84369748 C6.82016807,8.72605042 6.82016807,8.59831933 6.82016807,8.48067227 C6.82016807,3.01176471 9.81176471,0 15.2336134,0 C20.6655462,0 23.6571429,3.01176471 23.6571429,8.47731092 C23.6571429,11.0655462 23.0016807,13.102521 21.7176471,14.5344538 Z M17.2369748,9.88907563 C17.4319328,9.88907563 17.6201681,9.81176471 17.7579832,9.67394958 C18.0436975,9.38487395 18.0436975,8.91764706 17.7579832,8.62521008 L15.902521,6.75294118 L15.902521,4.23193277 C15.902521,3.82521008 15.5764706,3.49243697 15.1663866,3.49243697 C14.7596639,3.49243697 14.4302521,3.82521008 14.4302521,4.23193277 L14.4302521,7.05882353 C14.4302521,7.25714286 14.507563,7.44201681 14.6453782,7.58319328 L16.7193277,9.67058824 C16.8638655,9.81512605 17.0521008,9.88571429 17.2369748,9.88907563 L17.2369748,9.88907563 Z" id="Fuera-de-servicio-_3Masa"></path>
        </g>
    </g>
</svg>

<svg width="24" height="24" viewBox="0 0 24 24" xmlns="http://www.w3.org/2000/svg"><path d="M21.913 19.721c.225-.383.53-1.324-.286-2.864-1.254-2.383-3.667-2.548-3.688-2.548a.737.737 0 01-.608-.386c-.087-.158-2.296-4.02-7.697-4.02-2.686 0-4.528 1.294-5.607 2.38-1.637 1.656-2.511 3.882-2.5 5.125-.051 1.009 0 1.809.066 2.313h1.412c.266-1.523 1.402-2.44 3.09-2.44 1.687 0 2.823.92 3.088 2.44h4.088c.255-1.523 1.384-2.43 3.068-2.43 1.688 0 2.824.91 3.08 2.43h2.494zm-3.893.74v-.01c0-1.137-.548-1.678-1.677-1.678-1.126 0-1.667.545-1.667 1.677v.01c0 1.127.537 1.681 1.667 1.681 1.126 0 1.677-.554 1.677-1.68zm-10.249 0v-.02c0-1.137-.547-1.681-1.677-1.681s-1.677.544-1.677 1.68.548 1.691 1.677 1.691c1.12 0 1.667-.544 1.677-1.67zm13.947-5.927c.44.427.864.958 1.216 1.63 1.627 3.093-.077 4.764-.147 4.831a.74.74 0 01-.511.205h-2.854c-.276 1.513-1.402 2.42-3.08 2.42-1.676 0-2.803-.907-3.068-2.42h-4.1c-.277 1.503-1.403 2.41-3.08 2.41s-2.807-.907-3.079-2.41H.958a.74.74 0 01-.716-.582c-.01-.047-.286-1.324-.188-3.24-.01-1.492.904-4.08 2.934-6.134.854-.87 2.128-1.86 3.842-2.4-.01-.118-.01-.246-.01-.363C6.82 3.01 9.812 0 15.234 0c5.432 0 8.423 3.012 8.423 8.477 0 2.589-.655 4.626-1.94 6.057zM17.237 9.89a.738.738 0 00.521-.215.749.749 0 000-1.049l-1.855-1.872V4.232a.737.737 0 10-1.473 0v2.827c0 .198.078.383.215.524l2.074 2.088a.749.749 0 00.518.218z" fill="#5CB615" fill-rule="nonzero"/></svg>
